X:30
T:Lisheen Slide, The
R:slide
H:Also played in G, see #71
D:Begley & Cooney: Meitheal
Z:id:hn-slide-30
M:6/8
K:A
c3 cBc|A2c B2A|c3 cBA|B2c d2B|
c3 cBc|ABA Ace|a2f ecA|1 B2c d2B:|2 B2c d2e||
|:aga ece|faf ece|aga bab|c'ac' bae|
aga ece|faf ece|aga bab|1 c'aa a2e:|2 c'aa a3||
<end>
<start>
